!!!OTL: RAEDCHEN RAEDCHEN GEHE GEHE
!!!ARE: Europa, Mitteleuropa, Deutschland
!!!SCT: B0659
!!!YEM: Copyright 1995, estate of Helmut Schaffrath.
**kern
*ICvox
*Ivox
*M3/8
*k[f#c#]
*D:
=1
{4a
8f#
=2
4d
8d
=3
8e
8d
8e
=4
4f#
8d}
=5
{4d
8f#
=6
4a
8dd
=7
8cc#
8b
8cc#
=8
4dd
8a}
=9
{8dd
8cc#
8dd
=10
8cc#
8dd
8ee
=11
8dd
8cc#
8b
=12
4.a}
=13
{4a
8a
=14
4b
8a
=15
8a
8g#
8a
=16
4ee
8cc#}
=17
{8a
8g#
8a
=18
4dd
8dd
=19
8ee
8dd
8ee
=20
4ff#
8dd}
=21
{8dd
8cc#
8dd
=22
8a
8g#
8a
=23
8f#
8e
8f#
=24
4b
8r}
=25
{8dd
8cc#
8b
=26
8a
8b
8a
=27
8g
8f#
8e
=28
4d
8r}
==
!!!AGN: Moral - Lied
!!!ONB: ESAC (Essen Associative Code) Database: BOEHME
!!!AMT: simple triple
!!!AIN: vox
!!!EED: Helmut Schaffrath
!!!EEV: 1.0
*-
